src/img/d-project.svg

<svg width="28" height="29" viewBox="0 0 28 29" fill="none" xmlns="http://www.w3.org/2000/svg">
<path d="M27.6796 22.6129L19.2796 14.2129L22.593 10.8995L24.553 8.93954L27.3997 6.09289C28.193 5.29954 28.193 3.99289 27.3997 3.19954L25.0197 0.819539C24.6464 0.446242 24.133 0.212891 23.573 0.212891C23.013 0.212891 22.4996 0.446242 22.1264 0.819539L19.2797 3.66619L17.3197 5.62619L14.0064 8.93954L5.69965 0.632891C5.18629 0.119539 4.253 0.119539 3.73965 0.632891L0.426348 3.94624C-0.133652 4.45959 -0.133652 5.34624 0.426348 5.90624L1.40635 6.88624L4.06635 9.54624L6.67965 12.1595L8.733 14.2129L1.24157 21.7043C1.1019 21.7659 1.0266 21.8919 0.986348 22.0529L0.00634766 27.6529C0.00634766 27.8395 0.0529961 27.9795 0.146348 28.0729C0.239645 28.1662 0.332996 28.2129 0.472996 28.2129C0.519645 28.2129 0.519645 28.2129 0.566348 28.2129L5.95006 27.2176C5.9873 27.2274 6.0275 27.2329 6.073 27.2329C6.213 27.2329 6.353 27.1862 6.39965 27.0929L14.0063 19.4862L14.6129 20.0929L15.9196 21.3996L22.4064 27.8863C22.6397 28.1196 22.9197 28.2129 23.1997 28.2129C23.4797 28.2129 23.7597 28.1196 23.9464 27.8863L27.6797 24.1529C28.0997 23.7329 28.0996 23.0329 27.6796 22.6129ZM6.073 26.0662L4.44014 24.4334L19.9559 8.9624L21.5664 10.5729L6.073 26.0662ZM22.7796 1.47289C23.1996 1.05289 23.9463 1.05289 24.3663 1.47289L26.7463 3.85289C27.1663 4.27289 27.1663 5.01954 26.7463 5.43954L24.2263 7.95954L20.2596 3.99289L22.7796 1.47289ZM19.6064 4.64624L21.5897 6.62959L23.573 8.61289L22.2664 9.91954L18.2997 5.95289L19.6064 4.64624ZM8.98965 13.1629L9.993 12.1595C10.1796 11.9729 10.1796 11.6929 9.993 11.5062C9.80635 11.3195 9.52635 11.3195 9.33965 11.5062L8.3363 12.5095L7.65965 11.8329L9.293 10.1995C9.47965 10.0129 9.47965 9.73289 9.293 9.54619C9.10635 9.35948 8.82635 9.35954 8.63965 9.54619L7.00629 11.1795L6.35294 10.5262L7.33294 9.54619C7.51959 9.35954 7.51959 9.07954 7.33294 8.89284C7.14629 8.70613 6.86629 8.70619 6.67959 8.89284L5.69959 9.87284L5.04624 9.21948L6.67959 7.58613C6.86624 7.39948 6.86624 7.11948 6.67959 6.93278C6.49294 6.74608 6.21294 6.74613 6.02624 6.93278L4.393 8.56624L3.693 7.86624L4.673 6.88624C4.85965 6.69959 4.85965 6.41959 4.673 6.23289C4.48635 6.04619 4.20635 6.04624 4.01965 6.23289L3.03965 7.21289L2.38629 6.55954L4.01965 4.92619C4.20629 4.73954 4.20629 4.45954 4.01965 4.27284C3.833 4.08613 3.553 4.08619 3.36629 4.27284L1.733 5.90624L1.07964 5.25289C0.892996 5.06624 0.892996 4.78624 1.07964 4.59954L4.393 1.28624C4.48635 1.19289 4.57965 1.14624 4.71965 1.14624C4.813 1.14624 4.953 1.19289 5.04629 1.28624L13.353 9.59289L9.38635 13.5595L8.98965 13.1629ZM17.6464 6.65289L19.2792 8.28575L3.76349 23.7567L2.153 22.1462L17.6464 6.65289ZM1.77965 23.0795L3.31068 24.6106C3.33397 24.6639 3.36793 24.7145 3.413 24.7595L5.09989 26.4464L1.0797 27.1395L1.77965 23.0795ZM27.0264 23.4995L23.293 27.2329C23.2464 27.2795 23.1064 27.2795 23.0597 27.2329L18.2296 22.4029L19.8863 20.7462C20.0729 20.5596 20.0729 20.2796 19.8863 20.0929C19.6996 19.9062 19.4196 19.9062 19.2329 20.0929L17.5763 21.7495L16.8996 21.0729L17.8797 20.0929C18.0663 19.9062 18.0663 19.6262 17.8797 19.4395C17.693 19.2529 17.413 19.2529 17.2263 19.4395L16.2463 20.4195L15.5929 19.7662L17.2263 18.1328C17.4129 17.9462 17.4129 17.6662 17.2263 17.4795C17.0396 17.2928 16.7596 17.2928 16.5729 17.4795L14.9396 19.1129L14.6596 18.8329L18.6263 14.8662L27.0263 23.2662C27.073 23.3129 27.073 23.4529 27.0264 23.4995Z" fill="#E3B873"/>
</svg>

<svg width="28" height="29" fill="none" xmlns="http://www.w3.org/2000/svg"><path d="M27.68 22.613l-8.4-8.4 3.313-3.313 1.96-1.96L27.4 6.093c.793-.793.793-2.1 0-2.893L25.02.82a2.048 2.048 0 0 0-1.447-.607c-.56 0-1.073.233-1.447.607L19.28 3.666l-1.96 1.96-3.314 3.314L5.7.633C5.186.12 4.253.12 3.74.633L.426 3.946c-.56.514-.56 1.4 0 1.96l.98.98 2.66 2.66L6.68 12.16l2.053 2.053-7.491 7.491c-.14.062-.215.188-.256.349l-.98 5.6c0 .187.047.327.14.42.094.093.187.14.327.14h.093l5.384-.995c.037.01.077.015.123.015.14 0 .28-.047.327-.14l7.606-7.607.607.607L15.92 21.4l6.486 6.486c.234.234.514.327.794.327s.56-.093.746-.327l3.734-3.733c.42-.42.42-1.12 0-1.54zM6.073 26.066L4.44 24.433l15.516-15.47 1.61 1.61L6.073 26.066zM22.78 1.473c.42-.42 1.166-.42 1.586 0l2.38 2.38c.42.42.42 1.167 0 1.587l-2.52 2.52-3.966-3.967 2.52-2.52zm-3.174 3.173L21.59 6.63l1.983 1.983-1.307 1.307L18.3 5.953l1.306-1.307zM8.99 13.163l1.003-1.004a.451.451 0 0 0 0-.653.451.451 0 0 0-.653 0L8.336 12.51l-.676-.676L9.293 10.2a.451.451 0 0 0 0-.654.451.451 0 0 0-.653 0L7.006 11.18l-.653-.654.98-.98a.451.451 0 0 0 0-.653.451.451 0 0 0-.653 0l-.98.98-.654-.654L6.68 7.586a.451.451 0 0 0 0-.653.451.451 0 0 0-.654 0L4.393 8.566l-.7-.7.98-.98a.451.451 0 0 0 0-.653.451.451 0 0 0-.653 0l-.98.98-.654-.653L4.02 4.926a.451.451 0 0 0 0-.653.451.451 0 0 0-.654 0L1.733 5.906l-.653-.653a.451.451 0 0 1 0-.653l3.313-3.314a.424.424 0 0 1 .327-.14c.093 0 .233.047.326.14l8.307 8.307-3.967 3.966-.396-.396zm8.656-6.51l1.633 1.633-15.516 15.47-1.61-1.61L17.646 6.653zM1.78 23.08l1.53 1.53a.484.484 0 0 0 .103.15L5.1 26.445l-4.02.694.7-4.06zm25.246.42l-3.733 3.733c-.047.046-.187.046-.233 0l-4.83-4.83 1.656-1.657a.451.451 0 0 0 0-.653.451.451 0 0 0-.653 0l-1.657 1.657-.676-.677.98-.98a.451.451 0 0 0 0-.654.451.451 0 0 0-.654 0l-.98.98-.653-.653 1.633-1.633a.451.451 0 0 0 0-.653.451.451 0 0 0-.653 0l-1.633 1.633-.28-.28 3.966-3.967 8.4 8.4c.047.047.047.187 0 .234z" fill="#E3B873"/></svg>
